X: 21351
T: Carril's Lament
%R: air
B: James Oswald "The Caledonian Pocket Companion" v.2 p.135 #1
Z: 2018 John Chambers <jc:trillian.mit.edu>
N: A few missing dots supplied to fix the rhythm.
M: 6/8
L: 1/16
K: G
|: "_Slow"\
B6 A3G/G/G2 | G3E/E/E2 G3D/D/D2 |\
{GA}B6 A3G/G/G2 | TE3DE2 G6 ::\
d3B/B/B2 (d4 B2) | d6B/B/B2 TA4G2 |
d3B/B/B2 A3G/G/G2 | TE3DE2 G6 :|\
|:\
(D4B2) (A4B2) | G3E/E/E2 G3D/D/D2 |\
(d4B2) (A4G2) | TE3DE2 G6 :|
|:\
B4(ed) B4(3(ged) | B4 (3(edB) TA3GA2 |\
B4 (3(ged) TB3AG2 | TE3DE2 G6 :|\
|:\
(d<B)(A2G2) (d<B)(A2G2) | E4A2 G3ED2 |
(d<B)(A2G2) (d<B)(A2G2) | TE3DE2 G6 ::\
(g<e)(d2B2) (A4G2) | (g<e)(d2B2) TA3GE2 |\
G4(E<D) g4(3(g/ed3/) | TB3AG2 G6 :|


